src/assets/icons/expand.svg

<svg xmlns="http://www.w3.org/2000/svg" viewBox="0 0 32 32"><path data-name="Expand" d="M28 20v8h-8v-2h6v-6zM4 28v-8h2v6h6v2zm8-24v2H6v6H4V4zm16 0v8h-2V6h-6V4z" fill-rule="evenodd"/></svg>

<svg xmlns="http://www.w3.org/2000/svg" width="32" height="32" viewBox="0 0 32 32"><defs><style>.cls-1{fill-rule:evenodd;}</style></defs><g id="expand"><path id="Expand-2" data-name="Expand" class="cls-1" d="M28,20v8H20V26h6V20ZM4,28V20H6v6h6v2ZM12,4V6H6v6H4V4ZM28,4v8H26V6H20V4Z"/></g></svg>
